assets/MM-logo-white.svg

<svg fill="none" height="129" viewBox="0 0 353 129" width="353" xmlns="http://www.w3.org/2000/svg"><g fill="#fbfbfb" stroke="#000"><path d="m181 82h-4l4-6.5 6.5-1.5 15.5-10 15.5-9.5 6.5-1.5v-2.5l2-4 5.5-1.5v3.5h5.5l2 2v6l-2 2 22 19.5v4l11.5-12.5h3.5l11-8.5h6.5v3l4.5 4 5 9 24.5 26 18 13 2 4.5 5.5 4.5v3.5h-19.5l-12.5-6.5-9-1.5-38-6.5-13-1-38-2.5-71-1.5h-81.5-46l-2.5 2.5h-8l-2.5-2.5-8.5-2.5 11-4.5 81.5 3 89.5 1.5 69 2 18.5 1 32.5 3.5h5.5l-29-31-7.5-4-15.5 10.5-9-1h-6.5l-2-5.5-10-12.5-8-7-7 1.5c-2.5 1.3333-8 4.5-10 6.5l-5 5-16 9h-3z"/><path d="m245 6-2.5-3.5v-1.5h-6l-1.5 2.5-6 1.5h-5.5l-4 3v3l2 .5v2l-27 20.5-9-11.5-11 4.5v3.5l-41 29-4.5 1-11 9-2.5.5-13.5 9-1 2.5h6.5l8-4.5 4.5-1 2.5-3.5 11-5 14-10 31-19 1.5 8h2.5l3-2 1 2h3.5l3-1 1.5-3.5 31-24 22.5 19.5 16.5 20v4.5l2.5 3.5h3.5l8.5-6h5l3.5-4-10-9-13-15.5-19.5-19.5z"/></g></svg>

<svg width="353" height="129" viewBox="0 0 353 129" fill="none" xmlns="http://www.w3.org/2000/svg">
<path d="M181 82H177L181 75.5L187.5 74L203 64L218.5 54.5L225 53V50.5L227 46.5L232.5 45V48.5H238L240 50.5V56.5L238 58.5L260 78V82L271.5 69.5H275L286 61H292.5V64L297 68L302 77L326.5 103L344.5 116L346.5 120.5L352 125V128.5H332.5L320 122L311 120.5L273 114L260 113L222 110.5L151 109H69.5H23.5L21 111.5H13L10.5 109L2 106.5L13 102L94.5 105L184 106.5L253 108.5L271.5 109.5L304 113H309.5L280.5 82L273 78L257.5 88.5L248.5 87.5H242L240 82L230 69.5L222 62.5L215 64C212.5 65.3333 207 68.5 205 70.5L200 75.5L184 84.5H181V82Z" fill="#FBFBFB" stroke="black"/>
<path d="M245 6L242.5 2.5V1H236.5L235 3.5L229 5H223.5L219.5 8V11L221.5 11.5V13.5L194.5 34L185.5 22.5L174.5 27V30.5L133.5 59.5L129 60.5L118 69.5L115.5 70L102 79L101 81.5H107.5L115.5 77L120 76L122.5 72.5L133.5 67.5L147.5 57.5L178.5 38.5L180 46.5H182.5L185.5 44.5L186.5 46.5H190L193 45.5L194.5 42L225.5 18L248 37.5L264.5 57.5V62L267 65.5H270.5L279 59.5H284L287.5 55.5L277.5 46.5L264.5 31L245 11.5V6Z" fill="#FBFBFB" stroke="black"/>
</svg>
